packages/core/src/svgs/bfr.svg

<svg width="24" height="24" viewBox="0 0 24 24" fill="none" xmlns="http://www.w3.org/2000/svg">
<g clip-path="url(#clip0_31_6986)">
<path d="M0 0H24V24H0V0Z" fill="#3772FE"/>
<path d="M4.71436 6.85693H9.03007C9.21864 6.85693 9.39436 6.95122 9.5015 7.11408L12.0001 10.7141L14.4986 7.11408C14.6058 6.95122 14.7815 6.85693 14.9701 6.85693H19.2858L18.5829 7.92836C18.5455 7.99314 18.4918 8.04699 18.4272 8.08459C18.3625 8.12218 18.2891 8.1422 18.2144 8.14265H15.5701C15.5138 8.14313 15.4584 8.15698 15.4084 8.18306C15.3585 8.20914 15.3155 8.2467 15.2829 8.29265L14.2715 9.85693H17.4858L16.6715 10.9841C16.6395 11.0322 16.5962 11.0718 16.5454 11.0994C16.4946 11.127 16.4379 11.1419 16.3801 11.1426H13.7144C13.5001 11.1426 12.8572 11.7169 12.8572 12.0598C12.8572 12.4026 13.0458 13.0155 13.5772 13.7269L13.5858 13.7398C14.1301 14.4641 14.5715 15.5269 14.5715 16.3969C14.5715 18.5269 12.9129 19.2084 12.0001 19.2855C11.0872 19.2084 9.42864 18.5269 9.42864 16.4012C9.42864 15.5269 9.87007 14.4641 10.4144 13.7441L10.4229 13.7269C10.9544 13.0155 11.1429 12.3984 11.1429 12.0555C11.1429 11.7169 10.5644 11.1426 10.3501 11.1426H7.68436C7.62655 11.1419 7.5698 11.127 7.51902 11.0994C7.46824 11.0718 7.42496 11.0322 7.39293 10.9841L6.51436 9.85693H9.72436L8.64007 8.29265C8.6075 8.2467 8.56449 8.20914 8.51457 8.18306C8.46465 8.15698 8.40925 8.14313 8.35293 8.14265H5.70864C5.63385 8.1422 5.56048 8.12218 5.49582 8.08459C5.43116 8.04699 5.37746 7.99314 5.34007 7.92836L4.71436 6.85693ZM12.0001 17.9998C12.9001 17.9998 13.2858 17.0055 13.2858 16.4012C13.2858 15.9126 12.4801 14.4726 12.0001 13.8169C11.5201 14.4769 10.7144 15.9169 10.7144 16.4012C10.7144 17.0055 11.1001 17.9998 12.0001 17.9998Z" fill="#F0F3FA"/>
</g>
<defs>
<clipPath id="clip0_31_6986">
<rect width="24" height="24" fill="white"/>
</clipPath>
</defs>
</svg>

<svg xmlns="http://www.w3.org/2000/svg" width="24" height="24" fill="none" viewBox="0 0 24 24"><g clip-path="url(#a)"><path fill="#3772FE" d="M0 0h24v24H0z"/><path fill="#F0F3FA" d="M4.714 6.857H9.03c.189 0 .364.094.472.257l2.498 3.6 2.499-3.6a.56.56 0 0 1 .471-.257h4.316l-.703 1.071a.43.43 0 0 1-.369.215H15.57a.36.36 0 0 0-.287.15l-1.011 1.564h3.214l-.814 1.127a.36.36 0 0 1-.292.159h-2.666c-.214 0-.857.574-.857.917s.189.955.72 1.667l.009.013c.544.724.986 1.787.986 2.657 0 2.13-1.66 2.811-2.572 2.889-.913-.078-2.571-.76-2.571-2.885 0-.874.441-1.937.985-2.657l.009-.017c.531-.712.72-1.329.72-1.671 0-.34-.579-.913-.793-.913H7.684a.36.36 0 0 1-.291-.159l-.879-1.127h3.21L8.64 8.293a.36.36 0 0 0-.287-.15H5.709a.43.43 0 0 1-.369-.215zM12 18c.9 0 1.286-.994 1.286-1.599 0-.488-.806-1.928-1.286-2.584-.48.66-1.286 2.1-1.286 2.584C10.714 17.006 11.1 18 12 18"/></g><defs><clipPath id="a"><path fill="#fff" d="M0 0h24v24H0z"/></clipPath></defs></svg>
